!!!COM: Mozart, Wolfgang Amadeus
!!!CDT: 1756/01/27/-1791/12/05/
!!!CNT: German
!!!OTL: Piano Sonata No. 13 in B-flat major
!!!SCT1: K<sup>1</sup> 333
!!!SCT2: K<sup>6</sup> 315c
!!!OMV: 1
!!!OMD: Allegro
!!!ODT: ~1783///
**kern	**kern	**dynam
*staff2	*staff1	*staff1
*>[A,A,B,B]	*>[A,A,B,B]	*>[A,A,B,B]
*>norep[A,B]	*>norep[A,B]	*>norep[A,B]
*>A	*>A	*>A
*clefF4	*clefG2	*clefG2
*k[b-e-]	*k[b-e-]	*k[b-e-]
*B-:	*B-:	*B-:
*M4/4	*M4/4	*M4/4
*met(c)	*met(c)	*met(c)
*MM120	*MM120	*MM120
4r	(16ggLL	.
.	16ff	.
.	16ee-	.
.	16ddJJ	.
*clefG2	*	*
=1	=1	=1
8r	8ccL	.
(8B-L	8b-J)	.
8d	(4.b-	.
8fJ	.	.
8dL	.	.
8B-	8ddL	.
8d	8gg	.
8gJ)	8ddJ)	.
=2	=2	=2
8r	(4ff	.
(8cL	.	.
8e-	4.ee-)	.
8gJ	.	.
8e-L	.	.
8c	(16ffLL	.
.	16ggJJ	.
8e-	16ffLL	.
.	16ee-	.
8gJ)	16dd	.
.	16ccJJ	.
*clefF4	*	*
=3	=3	=3
8r	4b-	.
(8FL	.	.
8c	4.a)	.
8e-J	.	.
8cL	.	.
8F	(8aL	.
8c	8b-	.
8e-J)	8ccJ)	.
*clefG2	*	*
=4	=4	=4
8r	4a (4cc	.
(8B-L	.	.
8d	4b- 4dd)	.
8fJ	.	.
8dL	8r	.
8B-	(16ffLL	.
.	16eenJJ	.
8d	16ggLL	.
.	16ff	.
8fJ	16ee-	.
.	16ddJJ)	.
=5	=5	=5
8e-L	(8dd	.
8g	4cc)	.
8d	.	.
8fJ	8b-	.
8e-L	(8dd	.
8g	4cc)	.
8c	.	.
8e-J	8a	.
=6	=6	=6
4d) 4f	(16b-LL	.
.	16cc	.
.	16b-	.
.	16aJJ	.
4r	16b-LL	.
.	16cc	.
.	16dd	.
.	16ee-JJ	.
2r	16eenLL	.
.	16ff	.
.	16ee	.
.	16ffJJ	.
.	16ggLL	.
.	16ff	.
.	16ee-	.
.	16ddJJ)	.
=7	=7	=7
(8e-L	(8ddL	.
8g	8cc)	.
8d	(8cc	.
8fJ	8b-J)	.
8e-L	(8ddL	.
8g	8cc)	.
8c	(8cc	.
8e-J	8aJ)	.
=8	=8	=8
4d) 4f	(8b-L	.
.	16ccL	.
.	16ddJJ	.
4r	16ee-LL	.
.	16ff	.
.	16gg	.
.	16aaJJ	.
2r	16bb-LL	.
.	16ccc	.
.	16ddd	.
.	16eee-JJ	.
.	8fffL)	.
.	8fffJ	.
*clefF4	*	*
=9	=9	=9
*	*^	*
4A	(8fff	[2ff	.
.	4eee-)	.	.
4B-	.	.	.
.	8ddd	.	.
4E-	8dddL	8ffL]	.
.	8ccc	8ee-	.
4F	8bb-	8dd	.
.	8aaJ	8ccJ	.
=10	=10	=10	=10
8r	4bb-	4dd	.
8BB-L	.	.	.
8D	4b-	4b-	.
8FJ	.	.	.
4B-	4r	2ryy	.
4r	(16gLL	.	.
.	16f	.	.
.	16e-	.	.
.	16dJJ	.	.
*	*v	*v	*
=11	=11	=11
8r	8cL)	.
(8BB-L	8B-J	.
8D	4.B-	.
8FJ	.	.
8DL	.	.
8BB-	(8b-L	.
8D	8a	.
8GJ)	8gJ	.
=12	=12	=12
8r	4f	.
(8CL	.	.
8G	[4en	.
8B-J	.	.
8GL	16eLL]	.
.	16g	.
8C	16f	.
.	16aJJ	.
8G	16gLL	.
.	16b-	.
8B-J)	16a	.
.	16ccJJ	.
=13	=13	=13
8r	16b-LL	.
.	16g	.
(8EnL	16een	.
.	16ccJJ	.
8G	16ggLL	.
.	16ee	.
8cJ	16bb-	.
.	16aaJJ	.
8GL	16bb-LL	.
.	16aa	.
8E	16gg	.
.	16ffJJ	.
8G	16eeLL	.
.	16dd	.
8cJ)	16cc	.
.	16b-JJ)	.
=14	=14	=14
8r	(16b-LL	.
.	16a	.
(8FL	16dd	.
.	16ccJJ)	.
8A	4cc	.
8cJ	.	.
8AL	4r	.
8F	.	.
8A	(16dddLL	.
.	16ccc	.
8cJ)	16bb-	.
.	16aaJJ	.
=15	=15	=15
(8B-L	4.gg	.
8c	.	.
8B-	.	.
8cJ	8een	.
8AL	16ff'LL)	.
.	(16ccc	.
8c	16bbn	.
.	16cccJJ	.
8A	16dddLL	.
.	16ccc	.
8cJ	16bb-	.
.	16aaJJ	.
=16	=16	=16
8B-L	8gg)	.
8c	(4gg	.
8B-	.	.
8cJ	8een	.
8AL	16ff'LL)	.
.	(16ccc	.
8c	16bbn	.
.	16cccJJ	.
8A	16dddLL	.
.	16ccc	.
8cJ	16bb-	.
.	16aaJJ)	.
=17	=17	=17
8B-L	(8aaL	.
8d	8ggJ)	.
8B-	8r	.
8dJ	8gg	.
8BnL	(8ggL	.
8d	8ffJ)	.
8B	8r	.
8dJ)	8ff	.
*clefG2	*	*
=18	=18	=18
(4c	(16eenLL	.
.	16ff	.
.	16ee	.
.	16ccJJ	.
4d	16ffLL	.
.	16gg	.
.	16ff	.
.	16ccJJ	.
4en	16ggLL	.
.	16aa	.
.	16gg	.
.	16ccJJ	.
4f)	16aaLL	.
.	16bb-	.
.	16aa	.
.	16ccJJ	.
=19	=19	=19
(8gL	8bb-L)	.
8cc	8bb-J	.
8en	8r	.
8ccJ	8gg	.
8fL	(8bb-L	.
8cc	8aa	.
8d	8gg	.
8ccJ)	8ffJ)	.
=20	=20	=20
(4c	(16eenLL	.
.	16cc	.
.	16bbn	.
.	16cccJJ	.
4d	16ffLL	.
.	16cc	.
.	16bb	.
.	16cccJJ	.
4en	16ggLL	.
.	16cc	.
.	16bb	.
.	16cccJJ	.
4f)	16aaLL	.
.	16cc	.
.	16bb	.
.	16cccJJ	.
=21	=21	=21
(16gLL>	8bb-XL)	.
16cc	.	.
16bn	8bb-J	.
16ccJJ	.	.
16enLL	8r	.
16cc	.	.
16b	8ggT	.
16ccJJ	.	.
.	16ff#qLL	.
.	16ggqJJ	.
16fLL	(8bb-L	.
16cc	.	.
16b	8aa)	.
16ccJJ	.	.
16dLL	8gg'	.
16b	.	.
16a	8ffn'J	.
16bJJ	.	.
=22	=22	=22
4c) 4cc	N(16eenLL	.
.	16ccc	.
.	16gg	.
.	16eeJJ	.
4r	16ccLL	.
.	16g	.
.	16en	.
.	16cJJ	.
*clefF4	*	*
4CC 4CN)	2r	.
4r	.	.
=23	=23	=23
2FF 2F	4.c 4.f 4.a 4.cc	.
.	(16ddLL	.
.	16ccJJ	.
2r	8b-L)	.
.	8a'	.
.	8g'	.
.	8f'J	.
=24	=24	=24
4r	(8fL	.
.	8ddJ)	.
2BB- (2B-	4.f (4.dd	.
.	8cc)	.
4A)	(8eenL	.
.	8ffJ)	.
=25	=25	=25
4Bn (4d	(8ff	.
.	4g	.
4c)	.	.
.	8a)	.
4B (4d	(8ff	.
.	4g	.
4c)	.	.
.	8a)	.
=26	=26	=26
(4d	(4cc	.
4en	8.b-XTL	.
.	32aLL	.
.	32b-JJJ	.
4f)	8a'L)	.
.	(8a	.
4r	8b-	.
.	8ccJ)	.
=27	=27	=27
8r	(8cc#	.
(8BB-L	4dd	.
8D	.	.
8GJ	16ccnLL	.
.	16b-JJ	.
4B-)	8aL	.
.	8g	.
4r	8a	.
.	8b-J)	.
=28	=28	=28
8r	(8dd	.
(8AAL	4cc	.
8C	.	.
8FJ	16b-LL	.
.	16aJJ	.
4A)	8gL	.
.	8f	.
4r	8g	.
.	8aJ)	.
=29	=29	=29
4G	(8cc	.
.	4b-)	.
4En	.	.
.	8g	.
4F	(8b-	.
.	4a)	.
4D	.	.
.	8f	.
=30	=30	=30
4C	(<16enLL	.
.	16f	.
.	16g	.
.	16aJJ	.
4r	16bnLL	.
.	16cc	.
.	16b	.
.	16ccJJ	.
(16CLL	4c)	.
16D	.	.
16BB-	.	.
16CJJ	.	.
16AALL	4r	.
16BB-	.	.
16GG	.	.
16AAJJ	.	.
=31	=31	=31
4FF)	4.a (4.cc	.
4F	.	.
.	16ddLL	.
.	16ccJJ	.
2r	8b-XL)	.
.	8a'	.
.	8g'	.
.	8f'J	.
=32	=32	=32
4r	(8fL	.
.	8ddJ)	.
2BB- (2B-	4.f (4.dd	.
.	8cc)	.
4A)	(8eenL	.
.	[8ffJ)	.
=33	=33	=33
4Bn (4d	8ffL]	.
.	(8g	.
4c)	8a)	.
.	[8ffJ	.
4B (4d	8ffL]	.
.	(8g	.
4c)	8a)	.
.	8ff'J	.
=34	=34	=34
*	*^	*
2.ryy	(4cc	(4d 4f	.
.	8bnL	4en 4g	.
.	8b-J	.	.
.	8aL)	4f)	.
.	(8a	.	.
4r	8b-	4ryy	.
.	8ccJ)	.	.
*	*v	*v	*
=35	=35	=35
.	(32cc#qq	.
8r	(4.dd)	.
(8DL	.	.
8d)	.	.
8c'J	16eenLL	.
.	16ff#JJ	.
8B-'L	16ggLL	.
.	16aa	.
8BB-'	16bb-	.
.	16aaJJ	.
(8B-	16ggLL	.
.	16aa	.
8AJ)	16ffn	.
.	16ggJJ	.
=36	=36	=36
8GL	16eenLL	.
.	16ff	.
8F	16dd	.
.	16eeJJ	.
8En	16ccLL	.
.	16dd	.
8CJ	16b-	.
.	16ccJJ	.
4F	16aLL	.
.	16b-	.
.	16cc	.
.	16ddJJ	.
4AA	16eeLL	.
.	16ff	.
.	16ee	.
.	16ffJJ	.
=37	=37	=37
*	*^	*
4BB-	16ggLL	2.ryy	.
.	16ff	.	.
.	16een	.	.
.	16ddJJ	.	.
4B-	16eeLL	.	.
.	16dd	.	.
.	16cc	.	.
.	16b-JJ	.	.
4c	4a)	.	.
4C	(8.gTL	4en	.
.	32fLL	.	.
.	32gJJJ	.	.
=38	=38	=38	=38
!LO:TX:i:t=legato	!	!	!
16FLL	4f)	4f	.
16c	.	.	.
16Bn	.	.	.
16cJJ	.	.	.
16dLL	2.ryy	4r	.
16c	.	.	.
16B	.	.	.
16cJJ	.	.	.
16B-LL	.	2r	.
16c	.	.	.
16A	.	.	.
16cJJ	.	.	.
16GLL	.	.	.
16c	.	.	.
16F	.	.	.
16cJJ	.	.	.
*	*v	*v	*
=39	=39	=39
16EnLL	(8bb-L	fp
16c	.	.
16G	8gg)	.
16cJJ	.	.
16B-LL	8een'	.
16c	.	.
16B-	8ee'J	.
16cJJ	.	.
16ELL	(8bb-L	fp
16c	.	.
16G	8gg)	.
16cJJ	.	.
16B-LL	8ee'	.
16c	.	.
16B-	8ee'J	.
16cJJ	.	.
=40	=40	=40
16ALL	8ff'L	.
16c	.	.
16En	8gg'	.
16cJJ	.	.
16FLL	8aa'	.
16c	.	.
16G	8bb-'J	.
16cJJ	.	.
16G#LL	(8bbnL	fp
16c	.	.
16A	8ccc)	.
16cJJ	.	.
16G#LL	(8bb	.
16c	.	.
16A	8cccJ)	.
16cJJ	.	.
=41	=41	=41
16EnLL	(8bb-XL	fp
16c	.	.
16Gn	8gg)	.
16cJJ	.	.
16B-LL	8een'	.
16c	.	.
16B-	8ee'J	.
16cJJ	.	.
16ELL	(8bb-L	fp
16c	.	.
16G	8gg)	.
16cJJ	.	.
16B-LL	8ee'	.
16c	.	.
16B-	8ee'J	.
16cJJ	.	.
=42	=42	=42
16ALL	8ff'L	.
16c	.	.
16En	8gg'	.
16cJJ	.	.
16FLL	8aa'	.
16c	.	.
16G	8bb-'J	.
16cJJ	.	.
16G#LL	(8bbnL	.
16c	.	.
16A	8ccc)	.
16cJJ	.	.
16G#LL	(8bb	.
16c	.	.
16A	8cccJ)	.
16cJJ	.	.
=43	=43	=43
8r	2dd 2ddd	p
(8B-L	.	.
8A	.	.
8B-J)	.	.
8r	2en 2een	.
(8cL	.	.
8Bn	.	.
8cJ)	.	.
=44	=44	=44
8r	2b-X 2bb-X	.
(8c#L	.	.
8Bn	.	.
8c#J)	.	.
8r	2a 2aa	.
(8dL	.	.
8c#	.	.
8dJ)	.	.
=45	=45	=45
*^	*	*
4r	4r	(16aaLL	.
.	.	16gg	.
.	.	16bb-	.
.	.	16aaJJ	.
*clefG2	*clefG2	*	*
4g	4B-X	16cccLL	.
.	.	16bb-	.
.	.	16aa	.
.	.	16ggJJ	.
(4a	2cn	4ff	.
4b-)	.	4een)	.
*v	*v	*	*
=46	=46	=46
2f 2a	8r	.
.	(8ffL	p
.	8een	.
.	8ffJ)	.
2f 2a	8r	.
.	(8ee-L	.
.	8dd	.
.	8ee-J)	.
*clefF4	*	*
=47	=47	=47
2F# 2A 2c	8r	.
.	(8ddL	.
.	8ddd)	.
.	8ddd'J	.
2G 2B-	8r	.
.	(8dddL	.
.	8dd)	.
.	8dd'J	.
=48	=48	=48
2En 2G 2B-	8r	.
.	(8ccL	.
.	8ccc)	.
.	8ccc'J	.
2Fn 2A	8r	.
.	(8cccL	.
.	8cc)	.
.	8cc'J	.
=49	=49	=49
*^	*^	*
4r	4r	(8cc#L	2.ryy	.
.	.	8dd	.	.
4G	4BBn	8een	.	.
.	.	8ffJ)	.	.
(4A	2C	(>4f	.	.
4B-	.	8aL	4en	.
.	.	8gJ	.	.
*	*	*v	*v	*
=50	=50	=50	=50
8A)	8F	8f)	.
8r	8r	(16fLL	.
.	.	16aJJ	.
(8enL	4r	16gLL	.
.	.	16b-	.
8e-J	.	16a	.
.	.	16ccJJ	.
8d)	8F	8b-')	.
8r	8re	(16fLL	.
.	.	16aJJ	.
(8enL	4r	16gLL	.
.	.	16b-	.
8e-J	.	16a	.
.	.	16ccJJ	.
=51	=51	=51	=51
8d)	8F	8b-')	.
8r	8r	(16fLL	.
.	.	16aJJ	.
2.ryy	(8enL	16gLL	.
.	.	16b-	.
.	8e-J	16a	.
.	.	16ccJJ	.
.	8dL)	16b-LL	.
.	.	16dd	.
.	8A	16cc	.
.	.	16ee-JJ	.
.	8B-	16ddLL	.
.	.	16ff	.
.	8GJ	16een	.
.	.	16ggJJ	.
*v	*v	*	*
=52	=52	=52
4A	16ffLL	.
.	16gg	.
.	16aa	.
.	16ggJJ	.
4r	16ffLL	.
.	16ee-X	.
.	16dd	.
.	16cc#JJ	.
4B-	16ddLL	.
.	16ccn	.
.	16b-	.
.	16aJJ	.
4r	16gLL	.
.	16f	.
.	16en	.
.	16dJJ	.
=53	=53	=53
(8CL	16cLL	.
.	16f	.
8F	16a	.
.	16ccJJ)	.
8A	8ff	.
8FJ	8f' 8a'	.
8CL	(8a 8ccL	.
8G	8g) 8b-	.
8B-	8f' 8a'	.
8GJ)	8en' 8g'J	.
=54	=54	=54
*^	*	*
8r	8F 8A	8f	.
(8fL	8r	(16ffLL	.
.	.	16aaJJ	.
8en	4r	16ggLL	.
.	.	16bb-	.
8e-J	.	16aa	.
.	.	16cccJJ	.
8d)	8F	8bb-')	.
(8fL	8r	(16ffLL	.
.	.	16aaJJ	.
8en	4r	16ggLL	.
.	.	16bb-	.
8e-J	.	16aa	.
.	.	16cccJJ	.
=55	=55	=55	=55
8d)	8F	8bb-')	.
8ryy	(8fL	(16ffLL	.
.	.	16aaJJ	.
2.ryy	8en	16ggLL	.
.	.	16bb-	.
.	8e-J	16aa	.
.	.	16cccJJ	.
.	8dL)	16bb-LL	.
.	.	16ff	.
.	8A	16ccc	.
.	.	16ffJJ	.
.	8B-	16dddLL	.
.	.	16ff	.
.	8GJ	16eeen	.
.	.	16ffJJ	.
*v	*v	*	*
=56	=56	=56
4AA 4A	16fffLL	.
.	16eeen	.
.	16ddd	.
.	16cccJJ	.
4r	16bb-LL	.
.	16aa	.
.	16gg	.
.	16ffJJ	.
4BB- 4B-	16dddLL	.
.	16ccc	.
.	16bb-	.
.	16aaJJ	.
4r	16ggLL	.
.	16ff	.
.	16een	.
.	16ddJJ	.
=57	=57	=57
(16CLL	8ccL)	.
16A	.	.
16F	8ccc	.
16AJJ	.	.
16CLL	8ccc	.
16A	.	.
16F	8cccJ	.
16AJJ	.	.
16CLL	(16cccLL	.
16A	16aa	.
16F	16ff	.
16AJJ	16ccJJ	.
16CLL	16ffLL	.
16A	16cc	.
16F	16a	.
16AJJ	16fJJ)	.
=58	=58	=58
16CLL	1gTT	.
16B-	.	.
16En	.	.
16B-JJ	.	.
16CLL	.	.
16B-	.	.
16E	.	.
16B-JJ	.	.
16CLL	.	.
16B-	.	.
16E	.	.
16B-JJ	.	.
16CLL	.	.
16B-	.	.
16E	.	.
16B-JJ	.	.
.	(16fqLL	.
.	16gqJJ)	.
=59	=59	=59
8F)	(8fL	.
(8fL	8ffJ)	.
8en	8r	.
8fJ	(8ff	.
8gL	8eenL	.
8f	8ff	.
8e	8gg	.
8e-J)	8aaJ	.
=60	=60	=60
(8dL	16bb-LL	.
.	16ccc	.
8F	16ddd	.
.	16cccJJ	.
8d-	16bb-LL	.
.	16aa-	.
8FJ	16gg	.
.	16ffJJ	.
8cL	16eenLL	.
.	16ff	.
8F	16gg	.
.	16ffJJ	.
8en	16eeLL	.
.	16dd	.
8FJ	16cc	.
.	16b-JJ	.
=61	=61	=61
8fL)	8anL)	.
(8F	8a'J	.
8En	8r	.
8FJ	(8f	.
8GL	8enL	.
8F	8f	.
8E	8g	.
8E-J	8aJ	.
=62	=62	=62
4D)	8b-L)	.
.	(8b-T	.
.	16aqLL	.
.	16b-qJJ	.
4BB-	8cc	.
.	8ddJ)	.
4C	8b- (8ddL	.
.	8a 8ccJ)	.
4C	8r	.
.	8B- 8en	.
=63	=63	=63
4F	(2B- (2g	.
4C	.	.
4FF	4A) 4f)	.
=:|!|:	=:|!|:	=:|!|:
*>B	*>B	*>B
4r	(16ddLL	.
.	16cc	.
.	16b-	.
.	16aJJ	.
=64	=64	=64
8r	8gL	.
(8FFL	8fJ)	.
8AA	4.f	.
8CJ	.	.
8AAL	.	.
8FF	(8ffL	.
8AA	8gg	.
8CJ)	8aaJ)	.
=65	=65	=65
.	(32eenqq	.
8r	(8.bb-L)	.
(8GL	.	.
.	16ggJk	.
8B-	4een)	.
8enJ	.	.
8B-L	4r	.
8G	.	.
8B-	(16ccLL	.
.	16b-	.
8eJ)	16a	.
.	16gJJ	.
=66	=66	=66
8r	8fL	.
(8GGL	8enJ)	.
8BB-	4.e	.
8EnJ	.	.
8BB-L	.	.
8GG	(8ggL	.
8BB-	8aa	.
8EJ)	8bb-J)	.
=67	=67	=67
.	(32ff#qq	.
8r	(8.cccL)	.
(8AL	.	.
.	16aaJk	.
8c	4ff#)	.
8e-XJ	.	.
8cL	8r	.
8A	(8aaL	.
8c	8bb-	.
8e-J)	8cccJ)	.
=68	=68	=68
.	(32ggqq	.
8r	(8.dddL)	.
(8BB-L	.	.
.	16bb-Jk	.
8D	8gg)	.
8GJ)	8r	.
.	(32eenqq	.
8r	(8.bb-L)	.
(8CL	.	.
.	16ggJk	.
8G	8een)	.
8B-J)	8r	.
=69	=69	=69
.	(32bnqq	.
8r	(8.ffnL)	.
(8DL	.	.
.	16ddJk	.
8F	4bn)	.
8A-J	.	.
8FL	8r	.
8D	8bL	.
8F	8b	.
8A-J)	8bJ	.
=70	=70	=70
2C 2An	(16ccLL	.
.	16aa	.
.	16ff	.
.	16ccJJ	.
.	16aLL	.
.	16ff	.
.	16cc	.
.	16aJJ)	.
4c	(8a 8ccL	.
.	8g) 8b-X	.
4C	8f' 8a'	.
.	8en' 8g'J	.
=71	=71	=71
!LO:TX:i:t=legato	!	!
16FLL	4f	.
16c	.	.
16A-	.	.
16cJJ	.	.
16FLL	4r	.
16c	.	.
16A-	.	.
16cJJ	.	.
16FLL	16r	.
16c	(>16fLL	.
16A-	16g	.
16cJJ	16a-JJ	.
16FLL	16b-LL	.
16c	16cc	.
16A-	16dd	.
16cJJ	16eenJJ	.
=72	=72	=72
16FLL	16ffLL	.
16c	16cc	.
16A-	16aa-	.
16cJJ	16ggJJ	.
16FLL	16ffLL	.
16c	16cc	.
16A-	16aa-	.
16cJJ	16ggJJ	.
16FLL	16ffLL	.
16d	16gg	.
16A-	16ee-	.
16dJJ	16ffJJ	.
16FLL	16ddLL	.
16d	16ee-	.
16A-	16cc	.
16dJJ	16ddJJ	.
=73	=73	=73
16GLL	8bn)	.
16f	.	.
16d	4fff	.
16fJJ	.	.
16GLL	.	.
16f	.	.
16d	4eee-	.
16fJJ	.	.
16GLL	.	.
16f	.	.
16d	4ddd	.
16fJJ	.	.
16GLL	.	.
16f	.	.
16d	[8ccc	.
16fJJ	.	.
=74	=74	=74
16GLL	8ccc]	.
16f	.	.
16d	4bbn	.
16fJJ	.	.
16GLL	.	.
16f	.	.
16d	4aa-	.
16fJJ	.	.
16GLL	.	.
16d	.	.
16Bn	4gg	.
16dJJ	.	.
16GLL	.	.
16d	.	.
16B	8ff	.
16dJJ	.	.
=75	=75	=75
16GLL	(8ffL	.
16en	.	.
16c	8eenJ)	.
16eJJ	.	.
16GLL	4ee-	.
16e-	.	.
16c	.	.
16e-JJ	.	.
16GLL	16r	.
16e-	(16ee-LL	.
16c	16dd	.
16e-JJ	16ee-JJ	.
16GLL	16ffLL	.
16e-	16ee-	.
16c	16dd	.
16e-JJ	16ee-JJ	.
=76	=76	=76
16G-LL	8.gg-L)	.
16e-	.	.
16B-X	.	.
16e-JJ	16ee-Jk	.
16G-LL	(8.ee-TL	.
16e-	.	.
16B-	.	.
16e-JJ	32ddLL	.
.	32ee-JJJ	.
16G-LL	8.bb-L)	.
16e-	.	.
16B-	.	.
16e-JJ	16ee-Jk	.
16G-LL	(8.ee-TL	.
16e-	.	.
16B-	.	.
16e-JJ	32ddLL	.
.	32ee-JJJ	.
=77	=77	=77
16FLL	8aan'L)	.
16e-	.	.
16c	8ccc'J	.
16e-JJ	.	.
16FLL	([4eee-	.
16e-	.	.
16c	.	.
16e-JJ	.	.
16FLL	16eee-LL]	.
16e-	16fff	.
16c	16ddd	.
16e-JJ	16eee-JJ	.
16FLL	16cccLL	.
16e-	16ddd	.
16c	16bb-	.
16e-JJ	16cccJJ	.
=78	=78	=78
16FLL	16aaLL	.
16e-	16bb-	.
16c	16ccc	.
16e-JJ	16bb-JJ	.
16FLL	16aaLL	.
16e-	16bb-	.
16c	16ccc	.
16e-JJ	16dddJJ	.
16FLL	16eee-LL	.
16c	16ddd	.
16A	16ccc	.
16cJJ	16bb-JJ	.
16FLL	16aaLL	.
16c	16gg	.
16A	16ff	.
16cJJ	16ee-JJ)	.
=79	=79	=79
16F#LL	(8ee-LM	.
16c	.	.
16A	8ddJ)	.
16cJJ	.	.
16F#LL	4.dd	.
16c	.	.
16A	.	.
16cJJ	.	.
16F#LL	.	.
16c	.	.
16A	(8ddL	.
16cJJ	.	.
16F#LL	8ddd)	.
16d	.	.
16A	([8cccJ	.
16dJJ	.	.
=80	=80	=80
16GLL	8ccc]	.
16d	.	.
16B-	4bb-	.
16dJJ	.	.
16FnLL	.	.
16d	.	.
16A	[8aa	.
16dJJ	.	.
16EnLL	16aaLL]	.
16d	16gg	.
16G	16bb-	.
16dJJ	16aaJJ	.
16E-LL	16cccLL	.
16c#	16bb-	.
16G	16aa	.
16c#JJ	16ggJJ	.
=81	=81	=81
4D 4d	16ff#LL	.
.	16dd	.
.	16ddd	.
.	16ccc#JJ	.
4r	16dddLL	.
.	16ccc#	.
.	16ddd	.
.	16ccc#JJ	.
4r	16dddLL	.
.	16eee-	.
.	16cccn	.
.	16dddJJ	.
*clefG2	*	*
(>(4d 4f#	16bb-LL	.
.	16ccc	.
.	16aa	.
.	16bb-JJ	.
=82	=82	=82
4e-) 4g)	16ggLL	.
.	16aa	.
.	16ffn	.
.	16ggJJ	.
4r	16ee-LL	.
.	16ff	.
.	16dd	.
.	16ee-JJ	.
4r	8cc#L	.
.	8bb-	.
*clefF4	*	*
4E- ((4c#	8aa	.
.	8ggJ	.
=83	=83	=83
4D 4d))	16ff#LL)	.
.	(16cc#	.
.	16dd	.
.	16cc#JJ	.
4r	16ddLL	.
.	16cc#	.
.	16dd	.
.	16cc#JJ	.
4r	16ddLL	.
.	16ee-	.
.	16ccn	.
.	16ddJJ	.
4D\ ((4cn\	16b-LL	.
.	16cc	.
.	16a	.
.	16b-JJ	.
=84	=84	=84
4E- 4B-))	16gLL	.
.	16a	.
.	16fn	.
.	16gJJ	.
4r	16e-LL	.
.	16f	.
.	16d	.
.	16e-JJ	.
4r	8c#L	.
.	8g	.
4E- (4G	8b-	.
.	8c#J	.
=85	=85	=85
8D 8F#)	8dL	.
8r	8ddJ)	.
8D 8G 8B-	8r	.
8r	8dd	.
8D 8F# 8A	8r	.
8r	8dd	.
8D 8G 8B-	8r	.
8r	8dd	.
=86	=86	=86
4D 4F# 4A	8r	.
.	(8ddL	.
4r	8cc#	.
.	8ddJ	.
2r	8cc#L	.
.	8dd	.
.	8cc#	.
.	8ddJ	.
*clefG2	*	*
=87	=87	=87
8r	4ffn	.
8c 8fn 8aL	.	.
8c 8f 8a	4ee-)	.
8c 8f 8aJ	.	.
4c 4f 4a	16r	.
.	(16ee-LL	.
.	16dd	.
.	16ee-JJ	.
4r	16ffLL	.
.	16ee-	.
.	16dd	.
.	16ee-JJ	.
=88	=88	=88
8r	4bb-	.
8f 8cc 8ee-L>	.	.
8f 8cc 8ee-	4aa)	.
8f 8cc 8ee-J	.	.
4f/ 4cc/ 4ee-/	16r	.
.	(16aaLL	.
.	16gg	.
.	16aaJJ	.
4r	16bb-LL	.
.	16aa	.
.	16gg	.
.	16aaJJ	.
=89	=89	=89
8r	4fff	.
(8fL	.	.
8cc	4eee-)	.
8ee-J	.	.
2g-)	16r	.
.	(16eee-LL	.
.	16ddd	.
.	16eee-JJ	.
.	16fffLL	.
.	16eee-	.
.	16ddd-	.
.	16cccJJ	.
=90	=90	=90
8r	4bb-	.
(8fL	.	.
8cc	4aa)	.
8ee-J	.	.
2g-)	16r	.
.	(16eee-LL	.
.	16dddn	.
.	16eee-JJ	.
.	16fffLL	.
.	16eee-	.
.	16ddd-	.
.	16cccJJ	.
=91	=91	=91
*^	*	*
8f	4ryy	16bb-LL	.
.	.	16aa	.
8r	.	16eee-	.
.	.	16dddnJJ	.
2cc 2ee-	(4g-	16fffLL	.
.	.	16eee-	.
.	.	16ddd-	.
.	.	16cccJJ	.
.	4f)	16bb-LL	.
.	.	16aa	.
.	.	16eee-	.
.	.	16dddnJJ	.
[4cc [4ee-	(4g-	16fffLL	.
.	.	16eee-	.
.	.	16ddd-	.
.	.	16cccJJ	.
*v	*v	*	*
=92	=92	=92
4f) 4cc] 4ee-]	16bb-LL	.
.	16aa	.
.	16ccc	.
.	16bbnJJ	.
4r	16dddnLL	.
.	16ccc	.
.	16bb-	.
.	16aaJJ	.
2r	16ggLL	.
.	16ff	.
.	16gg	.
.	16ff#JJ	.
.	16aaLL	.
.	16gg	.
.	16ffn	.
.	16ee-JJ	.
=93	=93	=93
1r	8ddL	.
.	8cc)	.
.	8dd	.
.	8ee-J	.
.	8eenL	.
.	8ffJ	.
.	(16ggLL	.
.	16ff	.
.	16ee-	.
.	16ddJJ	.
=94	=94	=94
8r	8ccL	.
(8B-L	8b-J)	.
8d	(4.b-	.
8fJ	.	.
8dL	.	.
8B-	8ddL	.
8d	8gg	.
8gJ)	8ddJ)	.
=95	=95	=95
8r	(4ff	.
(8cL	.	.
8e-	4.ee-)	.
8gJ	.	.
8e-L	.	.
8c	(16ffLL	.
.	16ggJJ	.
8e-	16ffLL	.
.	16ee-	.
8gJ)	16dd	.
.	16ccJJ	.
*clefF4	*	*
=96	=96	=96
8r	4b-	.
(8FL	.	.
8c	4.a)	.
8e-J	.	.
8cL	.	.
8F	(8aL>	.
8c	8b-	.
8e-J)	8ccJ)	.
*clefG2	*	*
=97	=97	=97
8r	4a (4cc	.
(8B-L	.	.
8d	4b- 4dd)	.
8fJ	.	.
8dL	8r	.
8B-	(16ffLL	.
.	16eenJJ	.
8d	16ggLL	.
.	16ff	.
8fJ	16ee-	.
.	16ddJJ)	.
=98	=98	=98
8e-L	(8dd	.
8g	4cc)	.
8d	.	.
8fJ	8b-	.
8e-L	(8dd	.
8g	4cc)	.
8c	.	.
8e-J	8a	.
=99	=99	=99
4d) 4f	(16b-LL	.
.	16cc	.
.	16b-	.
.	16aJJ	.
4r	16b-LL	.
.	16cc	.
.	16dd	.
.	16ee-JJ	.
2r	16eenLL	.
.	16ff	.
.	16ee	.
.	16ffJJ	.
.	16ggLL	.
.	16ff	.
.	16ee-	.
.	16ddJJ)	.
=100	=100	=100
(8e-L	(8ddL	.
8g	8cc)	.
8d	(8cc	.
8fJ	8b-J)	.
8e-L	(8ddL	.
8g	8cc)	.
8c	(8cc	.
8e-J	8aJ)	.
=101	=101	=101
4d) 4f	(8b-L	.
.	16ccL	.
.	16ddJJ	.
4r	16ee-LL	.
.	16ff	.
.	16gg	.
.	16aaJJ	.
2r	16bb-LL	.
.	16ccc	.
.	16ddd	.
.	16eee-JJ	.
.	8fffL)	.
.	8fffJ	.
*clefF4	*	*
=102	=102	=102
*	*^	*
4A	(8fff	[2ff	.
.	4eee-)	.	.
4B-	.	.	.
.	8ddd	.	.
4E-	8dddL	8ffL]	.
.	8ccc	8ee-	.
4F	8bb-	8dd	.
.	8aaJ	8ccJ	.
=103	=103	=103	=103
8r	4bb-	4dd	.
8BB-L	.	.	.
8D	4b-	4b-	.
8FJ	.	.	.
4B-	4r	2ryy	.
4r	(16gLL	.	.
.	16f	.	.
.	16e-	.	.
.	16dJJ	.	.
*	*v	*v	*
=104	=104	=104
8r	8cL	.
(8BB-L	8B-J)	.
8D	4.B-	.
8FJ	.	.
8DL	.	.
8BB-	8b-'L	.
8D	(8b-	.
8FJ)	8ccJ	.
=105	=105	=105
8r	8b-L	.
(8BB-L	8aJ)	.
8D	4.a-	.
8FJ	.	.
8DL	.	.
8BB-	8a-L	.
8D	8a-	.
8FJ)	8a-J	.
=106	=106	=106
8r	(16aa-LL	.
.	16bb-	.
(8BB-L	16gg	.
.	16aa-JJ	.
8D	16ffLL	.
.	16gg	.
8FJ	16ee-	.
.	16ffJJ	.
8A-L	16ddLL	.
.	16ee-	.
8F	16cc	.
.	16ddJJ	.
8D	16b-LL	.
.	16cc	.
8BB-J)	16a-	.
.	16b-JJ	.
=107	=107	=107
8r	8a-L	.
(8BBnL	8gJ)	.
8D	4.g	.
8FJ	.	.
8GL	.	.
8F	8ggL	.
8D	(8gg	.
8BBJ)	8ffJ)	.
*clefG2	*	*
=108	=108	=108
8r	(8ffL	.
(8B-XL	8eenJ)	.
8d-	4.ee	.
8enJ	.	.
4g)	.	.
.	8ddd-L	.
4r	(8ddd-	.
.	8eeJ	.
=109	=109	=109
8r	8ggL	.
(8AnL	8ffJ)	.
8c	(4.ff	.
8fJ	.	.
4an)	.	.
.	8ff#L	.
4r	8gg	.
.	8ee-XJ	.
=110	=110	=110
8r	8cc#L	.
(8B-L	8ddnJ)	.
8dn	4dd	.
8fJ	.	.
4b-/)	8r	.
.	(8ffn	.
4r	16ggLL	.
.	16ff	.
.	16ee-	.
.	16ddJJ	.
=111	=111	=111
8e-L	4.ccn	.
8f	.	.
(8e-	.	.
8fJ	8a	.
8dL	16b-LL)	.
.	(16ff	.
8f	16een	.
.	16ffJJ	.
8d	16ggLL	.
.	16ff	.
8fJ	16ee-	.
.	16ddJJ	.
=112	=112	=112
8e-L	8cc)	.
8f	(4cc	.
8e-	.	.
8fJ	8a	.
8dL	16b-'LL)	.
.	(16ff	.
8f	16een	.
.	16ffJJ	.
8d	16ggLL	.
.	16ff	.
8fJ	16ee-	.
.	16ddJJ)	.
=113	=113	=113
8e-L	(8ddL	.
8g	8ccJ)	.
8e-	8r	.
8gJ	8cc	.
8enL	(8ccL	.
8g	8b-J)	.
8e	8r	.
8gJ)	8b-	.
*clefF4	*	*
=114	=114	=114
(4F	(16aLL	.
.	16b-	.
.	16a	.
.	16fJJ	.
4G	16b-LL	.
.	16cc	.
.	16b-	.
.	16fJJ	.
4A	16ccLL>	.
.	16dd	.
.	16cc	.
.	16fJJ	.
4B-)	16ddLL>	.
.	16ee-	.
.	16dd	.
.	16fJJ	.
=115	=115	=115
(8cL	8ee-'L)	.
8f	8ee-'J	.
8A	8r	.
8fJ	8cc	.
8B-L	(8ee-L	.
8f	8dd	.
8G	8cc	.
8fJ)	8b-J)	.
=116	=116	=116
(4F	(16aLL	.
.	16f	.
.	16een	.
.	16ffJJ	.
4G	16b-LL	.
.	16f	.
.	16ee	.
.	16ffJJ	.
4A	16ccLL	.
.	16f	.
.	16ee	.
.	16ffJJ	.
4B-)	16ddLL	.
.	16f	.
.	16ee	.
.	16ffJJ	.
=117	=117	=117
(16cLL	8ee-X'L)	.
16f	.	.
16en	8ee-'J	.
16fJJ	.	.
16ALL	8r	.
16f	.	.
16e	8ccT	.
16fJJ	.	.
.	16bnqLL	.
.	16ccqJJ	.
16B-LL	(8ee-L	.
16f	.	.
16e	8dd)	.
16fJJ	.	.
16GLL	8cc'	.
16e	.	.
16d	8b-'J	.
16eJJ)	.	.
=118	=118	=118
4F 4f	N(16aLL	.
.	16ff	.
.	16cc	.
.	16aJJ	.
4r	16fLL	.
.	16c	.
.	16A	.
.	16FJJ	.
4FFF 4FFN)	2r	.
4r	.	.
=119	=119	=119
2BBB-\ 2BB-\	4.F< 4.B-< 4.d 4.f	.
.	(16gLL	.
.	16fJJ	.
2r	8e-L)	.
.	8d'	.
.	8c'	.
.	8B-'J	.
=120	=120	=120
4r	(8B-L	.
.	8gJ)	.
2EE- (2E-	4.B- (>4.g	.
.	8f)	.
4D)	(8aL	.
.	8b-J)	.
=121	=121	=121
4En (4G	(8b-/	.
.	4c	.
4F)	.	.
.	8d)	.
4E (4G	(8b-/	.
.	4c	.
4F)	.	.
.	8d)	.
=122	=122	=122
(4G	(4f	.
4A	8.e-XTL	.
.	32dLL	.
.	32e-JJJ	.
4B-)	8dL)	.
.	(8d	.
4r	8e-	.
.	8fJ)	.
=123	=123	=123
8r	(8f#	.
(<8EE-L	4g	.
8GG	.	.
8CJ	16fnLL	.
.	16e-JJ	.
4E-)	8dL	.
.	8c	.
4r	8d	.
.	8e-J)	.
=124	=124	=124
8r	(8g	.
(<8DDL	4f	.
8FF	.	.
8BB-J	16e-LL	.
.	16dJJ	.
4D)	8cL	.
.	8B-	.
4r	8c	.
.	8dJ)	.
=125	=125	=125
4C	(8f	.
.	4e-)	.
4AA	.	.
.	8c	.
4BB-	(8e-	.
.	4d)	.
4GG	.	.
.	8B-	.
=126	=126	=126
4FF	(16ALL	.
.	16B-	.
.	16Bn	.
.	16cJJ	.
4r	16c#LL	.
.	16d	.
.	16e-	.
.	16enJJ	.
(16FLL	4f)	.
16G	.	.
16E-	.	.
16FJJ	.	.
16DLL	4r	.
16E-	.	.
16C	.	.
16DJJ)	.	.
=127	=127	=127
4BB-	4.f 4.b- 4.dd 4.ff	.
4B-	.	.
.	(16ggLL	.
.	16ffJJ	.
2r	8ee-L)	.
.	8dd'	.
.	8cc'	.
.	8b-'J	.
=128	=128	=128
4r	(8b-L	.
.	8ggJ)	.
2E- (2e-	4.b- (4.gg	.
.	8ff)	.
4d)	(8aaL	.
.	[8bb-J)	.
*clefG2	*	*
=129	=129	=129
(4en 4g	8bb-L]	.
.	(8cc	.
4f)	8dd)	.
.	[8bb-J	.
(4e 4g	8bb-L]	.
.	(8cc	.
4f)	8dd)	.
.	8bb-J	.
=130	=130	=130
(<4g 4b-	(4ff	.
4a/ 4cc/	8eenL	.
.	8ee-J	.
4b-)	8ddL)	.
.	(8dd	.
4r	8ee-	.
.	8ffJ)	.
*clefF4	*	*
=131	=131	=131
8r	4.gg	.
(8GL	.	.
8g)	.	.
8f'J	(16aaLL	.
.	16bbnJJ	.
8e-'L	16cccLL	.
.	16ddd	.
8E-'	16eee-	.
.	16dddJJ	.
(8e-	16cccLL	.
.	16ddd	.
8dJ)	16bb-	.
.	16cccJJ	.
=132	=132	=132
8cL	16aaLL	.
.	16bb-	.
8B-	16gg	.
.	16aaJJ	.
8A	16ffLL	.
.	16gg	.
8FJ	16ee-	.
.	16ffJJ	.
4B-	16ddLL	.
.	16ee-	.
.	16ff	.
.	16ggJJ	.
4D	16aaLL	.
.	16bb-	.
.	16aa	.
.	16bb-JJ	.
=133	=133	=133
*	*^	*
4E-	16cccLL	2.ryy	.
.	16bb-	.	.
.	16aa	.	.
.	16ggJJ	.	.
4e-	16aaLL	.	.
.	16gg	.	.
.	16ff	.	.
.	16ee-JJ	.	.
4f	4dd)	.	.
4F	(8.ccTL	4a	.
.	32b-LL	.	.
.	32ccJJJ	.	.
*clefG2	*	*	*
*	*v	*v	*
=134	=134	=134
!LO:TX:i:a:t=legato	!	!
16B-LL	4b-)	.
16f	.	.
16en	.	.
16fJJ	.	.
16gLL	4r	.
16f	.	.
16e	.	.
16fJJ	.	.
16e-LL	2r	.
16f	.	.
16d	.	.
16fJJ	.	.
16cLL	.	.
16f	.	.
16B-	.	.
16fJJ	.	.
=135	=135	=135
16ALL	(8ee-L	fp
16f	.	.
16c	8cc)	.
16fJJ	.	.
16e-LL	8a'	.
16f	.	.
16e-	8a'J	.
16fJJ	.	.
16ALL	(8ee-L	fp
16f	.	.
16c	8cc)	.
16fJJ	.	.
16e-LL	8a	.
16f	.	.
16e-	8aJ	.
16fJJ	.	.
=136	=136	=136
16dLL	8b-'L	.
16f	.	.
16A	8cc'	.
16fJJ	.	.
16B-LL	8dd'	.
16f	.	.
16c	8ee-'J	.
16fJJ	.	.
16c#LL	(8eenL	fp
16f	.	.
16d	8ff)	.
16fJJ	.	.
16c#LL	(8ee	.
16f	.	.
16d	8ffJ)	.
16fJJ	.	.
=137	=137	=137
16ALL	8ee-X (8eee-XL	fp
16f	.	.
16cn	8cc 8ccc)	.
16fJJ	.	.
16e-LL	8a' 8aa'	.
16f	.	.
16e-	8a' 8aa'J	.
16fJJ	.	.
16ALL	8ee- (8eee-L	fp
16f	.	.
16c	8cc 8ccc)	.
16fJJ	.	.
16e-LL	8a' 8aa'	.
16f	.	.
16e-	8a' 8aa'J	.
16fJJ	.	.
=138	=138	=138
16dLL	8b-' 8bb-'L	.
16f	.	.
16A	8cc' 8ccc'	.
16fJJ	.	.
16B-LL	8dd' 8ddd'	.
16f	.	.
16c	8ee-' 8eee-'J	.
16fJJ	.	.
16c#LL	8een (8eeenL	fp
16f	.	.
16d	8ff 8fff)	.
16fJJ	.	.
16c#LL	8ee (8eee	.
16f	.	.
16d	8ff 8fffJ)	.
16fJJ	.	.
*clefF4	*	*
=139	=139	=139
8r	2g 2gg	p
(8E-L	.	.
8D	.	.
8E-J)	.	.
8r	2A 2a	.
(8FL	.	.
8En	.	.
8FJ)	.	.
=140	=140	=140
8r	2ee-X 2eee-X	.
(8F#L	.	.
8En	.	.
8F#J)	.	.
8r	2dd 2ddd	.
(8GL	.	.
8F#	.	.
8GJ)	.	.
=141	=141	=141
*^	*	*
4r	4r	(16dddLL	.
.	.	16ccc	.
.	.	16eee-	.
.	.	16dddJJ	.
*clefG2	*clefG2	*	*
4cc	4e-X	16fffLL	.
.	.	16eee-	.
.	.	16ddd	.
.	.	16cccJJ	.
(4dd	2f	4bb-	.
4ee-)	.	4aa)	.
*v	*v	*	*
=142	=142	=142
2b- 2dd	8r	.
.	(8bb-L	p
.	8aa	.
.	8bb-J)	.
2b- 2dd	8r	.
.	(8aa-L	.
.	8gg	.
.	8aa-J)	.
=143	=143	=143
2bn 2dd 2ff	8r	.
.	(8ggL	.
.	8ff#	.
.	8ggJ)	.
2cc 2ee-	8r	.
.	(8ggL	.
.	8eee-)	.
.	8eee-'J	.
=144	=144	=144
2a 2cc 2ee-	8r	.
.	(8eee-L	.
.	8ffn)	.
.	8ff'J	.
2b-X 2dd	8r	.
.	(8ffL	.
.	8ddd)	.
.	8ddd'J	.
=145	=145	=145
2g 2b- 2dd	8r	.
.	(8dddL	.
.	8ee-)	.
.	8ee-'J	.
2a 2cc	8r	.
.	(8ee-L	.
.	8ccc)	.
.	8ccc'J	.
=146	=146	=146
2f# 2a 2cc	8r	.
.	(8cccL	.
.	8dd)	.
.	8dd'J	.
2g 2b-	8r	.
.	(8ddL	.
.	8bb-)	.
.	8bb-'J	.
=147	=147	=147
8r	(8bb-L	.
8en 8b-L	8ccJ)	.
8e 8b-	4r	.
8e 8b-J	.	.
8r	(8bb-L	.
8fn 8b-L	8ddJ)	.
8f 8b-	4r	.
8f 8b-J	.	.
=148	=148	=148
8r	(8bb-L	<
8g 8b-L	8ee-J)	.
8g 8b-	4r	.
8g 8b-J	.	.
8r	(8bb-L	.
8g- 8b-L	8eenJ)	.
8g- 8b-	4r	.
8g- 8b-J	.	.
=149	=149	=149
4f 4b-	(8bb-L	f
.	8ff)	.
4d 4b-	(8bb-	.
.	8ff#J)	.
4e- 4b-	(8bb-L	.
.	8gg)	.
4c 4fn	(8eee-X	.
.	8aaJ)	.
=150	=150	=150
4B- 4f	(8dddtL	p
.	8fff)	.
*clefF4	*	*
4D 4F	(8bb-T	.
.	8dddJ)	.
4E- 4B-	(8ggTL	.
.	8bb-)	.
4E- 4G	(8ccT	.
.	8ee-J)	.
=151	=151	=151
*^	*	*
4r	4r	16f'LL	.
.	.	(16ff	.
.	.	16gg	.
.	.	16ffJJ	.
2B-	4D	16ee-LL	.
.	.	16dd	.
.	.	16cc	.
.	.	16b-JJ)	.
.	4E-	(<2ccT	.
4A	4F	.	.
.	.	16b-qLL	.
.	.	16ccqJJ)	.
=152	=152	=152	=152
8B-	8BB-	8b-	.
8r	8r	(16B-LL	.
.	.	16dJJ	.
(8AL	4r	16cLL	.
.	.	16e-	.
8A-J	.	16d	.
.	.	16fJJ	.
8G)	8BB-	8e-')	.
8rA	8rBB	(16B-LL	.
.	.	16dJJ	.
(8AnL	4r	16cLL	.
.	.	16e-	.
8A-J	.	16d	.
.	.	16fJJ	.
=153	=153	=153	=153
8G)	8BB-	8e-')	.
8r	8r	(>16B-LL	.
.	.	16dJJ	.
2.ryy	(8AnL	16cLL	.
.	.	16e-	.
.	8A-J	16d	.
.	.	16fJJ	.
.	8GL)	16e-LL	.
.	.	16g	.
.	8D	16f	.
.	.	16a-JJ	.
.	8E-	16gLL	.
.	.	16b-	.
.	8CJ	16an	.
.	.	16ccJJ	.
*v	*v	*	*
=154	=154	=154
4D	16b-LL	.
.	16cc	.
.	16dd	.
.	16ccJJ	.
4r	16b-LL	.
.	16a-	.
.	16g	.
.	16f#JJ	.
4E-	16gLL	.
.	16cc	.
.	16ee-	.
.	16ddJJ	.
4r	16ccLL<	.
.	16b-	.
.	16an	.
.	16gJJ	.
=155	=155	=155
(8FL	16fnLL	.
.	16b-	.
8B-	16dd	.
.	16ffJJ	.
8d	8bb-)	.
8B-J	8b- 8dd	.
8FL	8dd (8ffL	.
8c	8cc 8ee-)	.
8e-	8b-' 8dd'	.
8cJ)	8a' 8cc'J	.
=156	=156	=156
*^	*	*
8B- 8d	2ryy	8b-	.
8r	.	(16b-LL	.
.	.	16ddJJ	.
*clefG2	*clefG2	*	*
(>8aL	.	16ccLL	.
.	.	16ee-	.
8a-J	.	16dd	.
.	.	16ffJJ	.
8g)	8B-	8ee-')	.
(8b-L	8r	(16bb-LL	.
.	.	16dddJJ	.
8an	4r	16cccLL	.
.	.	16eee-	.
8a-J	.	16ddd	.
.	.	16fffJJ	.
=157	=157	=157	=157
8g)	8B-	8eee-')	.
8r	8r	(16b-LL	.
.	.	16ddJJ	.
(8anL	2.ryy	16ccLL	.
.	.	16ee-	.
8a-J	.	16dd	.
.	.	16ffJJ	.
8gL)	.	16ee-LL	.
.	.	16b-	.
8d	.	16ff	.
.	.	16b-JJ	.
8e-	.	16ggLL	.
.	.	16b-	.
8cJ	.	16aan	.
.	.	16b-JJ	.
*v	*v	*	*
*clefF4	*	*
=158	=158	=158
4D 4d	16bb-LL	.
.	16ccc	.
.	16ddd	.
.	16cccJJ	.
4r	16bb-LL	.
.	16aa-	.
.	16gg	.
.	16ff#JJ	.
4E- 4e-	16ggLL	.
.	16ffn	.
.	16ee-	.
.	16ddJJ	.
4r	16ccLL	.
.	16b-	.
.	16an	.
.	16gJJ)	.
=159	=159	=159
(16FLL	8fL	.
16d	.	.
16B-	8ddd	.
16dJJ	.	.
16FLL	8ddd	.
16d	.	.
16B-	8dddJ	.
16dJJ	.	.
16FLL	(16dddLL	.
16d	16bb-	.
16B-	16ff	.
16dJJ	16ddJJ	.
16FLL	16bb-LL	.
16d	16ff	.
16B-	16dd	.
16dJJ	16b-JJ)	.
=160	=160	=160
16FLL	1ccTT	.
16e-	.	.
16A	.	.
16e-JJ	.	.
16FLL	.	.
16e-	.	.
16A	.	.
16e-JJ	.	.
16FLL	.	.
16e-	.	.
16A	.	.
16e-JJ	.	.
16FLL	.	.
16e-	.	.
16A	.	.
16e-JJ	.	.
.	(16b-qLL	.
.	16ccqJJ)	.
=161	=161	=161
8B-)	8b-L	.
*clefG2	*	*
(8b-L	8bb-J	.
8a	8r	.
8b-J	(8bb-	.
8ccL	8aaL	.
8b-	8bb-	.
8a	8ccc	.
8a-J)	8dddJ	.
=162	=162	=162
(8gL	16eee-LL	.
.	16ddd	.
8B-	16eee-	.
.	16dddJJ	.
8g-	16eee-LL	.
.	16ddd-	.
8B-J	16ccc	.
.	16bb-JJ	.
8fL	16aaLL	.
.	16bb-	.
8B-	16ccc	.
.	16bb-JJ	.
8an	16aaLL	.
.	16gg	.
8B-J	16ff	.
.	16ee-JJ	.
=163	=163	=163
8b-')	8ddn'L)	.
*clefF4	*	*
(8B-L	8dd'J	.
8A	8r	.
8B-J	(8b-	.
8cL	8aL	.
8B-	8b-	.
8A	8cc	.
8A-J	8ddJ	.
=164	=164	=164
4G)	8ee-L)	.
.	(8ee-T	.
.	16ddqLL	.
.	16ee-qJJ	.
4E-	8ff	.
.	8ggJ)	.
4F	8ee- (8ggL	.
.	8dd 8ffJ)	.
4F	8r	.
.	8e- 8a	.
=165	=165	=165
4B-	(>(2e- 2cc	.
4F	.	.
4BB-	4d) 4b-)	.
==:|!	==:|!	==:|!
*-	*-	*-
!!!RDF**kern: > = above
!!!RDF**kern: < = below
!!!RDF**kern: N = linked
!!!YOR: Alte Mozart-Ausgabe, Band 20, Breitkopf &amp; H&auml;rtel 1877-1883.
!!!YOY: 1878
!!!YEC: 2018 Craig Stuart Sapp
!!!YEM: Licence: (CC BY-NC-SA 4.0) https://creativecommons.org/licenses/by-nc-sa/4.0
!!!YER: 2018
!!!ENC: Craig Stuart Sapp
!!!END: 2009/10/09
!!!EED: Craig Stuart Sapp
!!!EEV: 2018/06/18
!!!EFL: 55/69
!!!AGN: piano sonata
!!!AFR: sonata-allegro
!!!title: @{OTL}, K 333 (315c), mvmt. @{OMV}
